X: 311
T: Beyâtî Sazsemâîsi
C: Kanunî Ömer Efendi
O: Turkey
F: http://compmusic.upf.edu/node/140
N: beyati--sazsemaisi--aksaksemai----kanuni_omer_efendi
N: makam= beyati
N: form= sazsemaisi
N: usul= aksaksemai = 10/8
M: 10/8
L: 1/16
K: C _2/4B   
Q: 1/4=144
%%MIDI tuningsystem comma53
d4 cBA3GBc Bcd4z2  | A4 G2Bc B2cd c2d4z2  | 
w:  1. HANE  |   | 
efef edeg feed dcd4e2  | c4 g2f4e4d4{f}ed  | 
w:   |   | 
c4 B2dc edcA BGAB cdeg  | f4 e2fg fef2 gagf e2z2  | 
w:   |  TESLİM  | 
e4 d2ef ede2 fgfe d2z2  | fed2 cBAB AGBc Bcd4eg  | 
w:   |   | 
f4 e2fg fef2 gagf e2z2  | e4 d2ef ede2 fgfe d2z2  | 
w:   |   | 
fed2 cBAB AGBc Bcd4e2  | c4 g2f4e4d4{f}ed  | 
w:   |   | 
c4 B2dc edcA BGA4z2  | d4 e^3/4fd4ef efg4fe  | 
w:   |  2. HANE  | 
d4 a2a_b agag fed4c'_2/4b  | a4 g2ga gffg feef edcB  | 
w:   |   | 
c4 g2f4e4d4{f}ed  | c4 B2dc edcA BGAB cdeg  | 
w:   |   | 
f4 e2fg fef2 gagf e2z2  | e4 d2ef ede2 fgfe d2z2  | 
w:  TESLİM  |   | 
fed2 cBAB AGBc Bcd4eg  | f4 e2fg fef2 gagf e2z2  | 
w:   |   | 
e4 d2ef ede2 fgfe d2z2  | fed2 cBAB AGBc Bcd4e2  | 
w:   |   | 
c4 g2f4e4d4{f}ed  | c4 B2dc edcA BGA4z2  | \
w:   |   | 
a4 g2a4b2 c'2a4g2  | 
w:  3. HANE  | 
^3/4f4 efg2 fea2 gfag fed2  | ded2 cBc2 B2ag ^3/4fed4e2  | 
w:   |   | 
c4 g2f4e4d4{f}ed  | c4 B2dc edcA BGAB cdeg  | 
w:   |   | 
f4 e2fg fef2 gagf e2z2  | e4 d2ef ede2 fgfe d2z2  | 
w:  TESLİM  |   | 
fed2 cBAB AGBc Bcd4eg  | f4 e2fg fef2 gagf e2z2  | 
w:   |   | 
e4 d2ef ede2 fgfe d2z2  | fed2 cBAB AGBc Bcd4e2  | 
w:   |   | 
c4 g2f4e4d4{f}ed  | c4 B2dc edcA BGA4z2  | z24  | \
w:   |   |  | 
G4c3Bc4d2e2f8  | 
w:  4. HANE  | 
e3fg2a2g2f2_1/4e2^d2e8  | c4g4g2^f2_3/4e2a2g2f2e2d2  | \
w:   |   | 
c3ed2c2B2A2B2G2A8  | 
w:   | 
G4c3Bc4d2e2f8  | e3fg2a2g2f2_1/4e2^d2e8  | \
w:  4. HANE  |   | 
c4g4g2^f2_3/4e2a2g2f2e2d2  | 
w:   | 
c3ed2c2B2A2B2G2A3Bcdeg  | z20  | f4 e2fg fef2 gagf e2z2  | 
w:   |  |  TESLİM  | 
e4 d2ef ede2 fgfe d2z2  | fed2 cBAB AGBc Bcd4eg  | 
w:   |   | 
f4 e2fg fef2 gagf e2z2  | e4 d2ef ede2 fgfe d2z2  | 
w:   |   | 
fed2 cBAB AGBc Bcd4e2  | c4 g2f4e4d4{f}ed  | 
w:   |   | 
c4 B2dc edcA BGA4z2  | |


